libs/ui/packages/crypto-icons/src/svg/LEND.svg

<svg width="24" height="24" viewBox="0 0 24 24" fill="none">
<path d="M12.8602 15.3345L8.77275 19.5L7.60725 18.2213L10.44 15.3337L7.5 12.339L8.75475 11.0595L12.8602 15.3345ZM15.2452 12.9412L16.5 11.6617L13.56 8.6655L16.3927 5.77875L15.2272 4.5L11.1218 8.6655L15.2452 12.9412ZM9.27525 10.566L13.3987 14.841L14.6535 13.5623L10.53 9.36L9.27525 10.566Z" fill="#0FA9C9"/>
</svg>

<svg width="24" height="24" viewBox="0 0 24 24" fill="none"><path fill="#0fa9c9" d="M12.86 15.335 8.773 19.5l-1.166-1.279 2.833-2.887-2.94-2.995 1.255-1.28zm2.385-2.394 1.255-1.28-2.94-2.995 2.833-2.887L15.227 4.5l-4.105 4.166zm-5.97-2.375 4.124 4.275 1.255-1.279L10.53 9.36z"/></svg>
